X:1
T:James Gibb editions
T:Psalm 86 (Becker) - Schütz
%%score [ ( 1 2 ) ( 3 4 ) ]
L:1/8
Q:1/4=98
M:2/2
K:F
V:1 treble nm="Soprano Alto"
V:2 treble 
V:3 bass nm="Tenor Bass"
V:4 bass 
V:1
"^Cornelius Becker\n(1561-1604)""^Psalm 86, SWV 183""^Heinrich Schütz\n(1585-1672)" d4 A2 B2 | %1
w: ~Herr, neig zu|
w: |
w: ich bin arm|
 F2 F2 G2 A2 | B4 F4 | G2 B2 A2 G2 | (c2 B2) A4 :| B4 c2 d2 |[M:2/2] c2 A2 G2 A2 | F4 d4 | %8
w: mir dein gnä- digs|Ohr, er-|hör mein sehn- lich|Fle\- * hen,||mir um wi- der|Recht, drum|
w: ||||man geht mit|||
w: und ver- las- sen|gar, be-|wahr, Herr, mei- ne|See\- * le,||||
 B2 _e2 c2 B2 | A2 G2 F4 | F4 A2 B2 | c2 d2 (B2 A2) | G8 |] %13
w: hilf du, mein Gott,|dei- nem Knecht,|der sich dir|ganz ver- trau\- *|et.|
w: |||||
w: |||||
V:2
 A,4 D2 D2 | D2 D2 D2 F2 | F4 D4 | _E2 F2 F2 D2 | G4 ^F4 :| F4 F2 F2 |[M:2/2] F2 F2 E2 F2 | C4 F4 | %8
 G2 G2 F2 D2 | F2 E2 F4 | C4 D2 D2 | F2 F2 (F G2 ^F) | G8 |] %13
V:3
 F,4 F,2 G,2 | A,2 A,2 B,2 C2 | D4 B,4 | B,2 D2 C2 B,2 | (_E2 D2) D4 :| D4 C2 B,2 | %6
[M:2/2]"^2. Ach, Herr, erzeig mir deine Gnad, täglich zu dir ich schreie,\nnach dir mein Herz Verlangen hat, deins Knechtes Seel erfreue,\ngroß ist, Herr, dein Barmherzigkeit, dein Güt und Treu ist stets bereit\nallen, die zu dir rufen.\n\n3. Mein G'bet laß vor dein Ohren gehn, vernimm die Stimm meins Flehens,\nin meiner Not ruf ich dich an, du wollest mich erhören,\ndeinsgleichen nirgend ist ein Gott, der solche große Wundertat\nwie du, hätt kunnt verrichetn.\n\n4. Alle Menschen, die du gemacht, vor deinen Thron her treten,\ndem Namen dein wird Ehr gebracht, wenn sie vor dir anbeten,\nes ist kein Gott, denn du allein, mächtig groß sind die Wunder dein,\ndie dein Allmacht beweiset.\n\n5. So zeige mir, Herr, deinen Weg, daß ich vor dir mög wallen\nin deinem Wort, der Wahrheit Steg, daran ich hab Gefallen,\nbei dem Einen mein Herz bewahr, daß ich dich fürchte immerdar\nund deinen Namen ehre.\n\n6. Ich danke dir, mein Gott und Herr, von meines Herzens Grunde,\newig ich deinen Namen ehr, lob dich zu allen Stunden,\ndein Güte ist groß über mich, mein Seel hast du genädiglich\nerrett aus tiefer Höllen." A,2 C2 C2 C2 | %7
 A,4 B,4 | G,2 C2 A,2 B,2 | C2 C2 C4 | A,4 F,2 G,2 | A,2 B,2 D4 | D8 |] %13
V:4
 D,4 D,2 G,,2 | D,2 D,2 G,2 F,2 | B,,4 B,,4 | _E,2 B,,2 F,2 G,2 | (C,2 G,2) D,4 :| B,,4 A,,2 B,,2 | %6
[M:2/2] F,2 F,2 C,2 F,2 | F,4 B,,4 | _E,2 C,2 F,2 G,2 | F,2 C,2 F,4 | F,4 D,2 G,2 | %11
 F,2 B,2 (B,,>C, D,2) | G,8 |] %13

